kwork_juristConsalt/img/svg/money.svg

<svg width="100" height="100" viewBox="0 0 100 100" fill="none" xmlns="http://www.w3.org/2000/svg">
<g clip-path="url(#clip0)">
<path d="M100 65.3611V76.7467C100 80.6134 89.6886 83.8359 77.0142 83.8359C64.3397 83.8359 54.2432 80.721 54.2432 76.8542V75.5654L54.0284 66.5428H54.1357C55.8542 69.8726 65.3064 72.4505 76.6918 72.4505C88.0772 72.4505 99.7852 69.2283 99.7852 65.3613H100V65.3611Z" fill="#FFC178"/>
<path d="M76.3696 23.0414V34.3194H76.1548C76.1548 38.2937 65.5213 41.4086 52.9541 41.4086C48.1207 41.5159 43.1797 40.9789 38.4536 39.7974L38.2388 40.0122C35.8757 38.0789 33.1905 36.5752 30.2905 35.6085V35.3937L29.9683 23.4711C30.7201 27.123 40.7094 30.023 52.8468 30.023C64.9842 30.023 76.1548 26.9081 76.1548 23.0414H76.3696Z" fill="#FF936B"/>
<path d="M76.3696 23.2562C76.3696 27.1229 65.7361 30.2378 53.0617 30.2378C40.3872 30.2378 30.8277 27.3378 30.0758 23.6859C30.0758 23.5786 29.9685 23.3637 29.9685 23.2562C29.9685 19.3895 40.2799 16.167 53.0619 16.167C65.8434 16.0597 76.3696 19.2819 76.3696 23.2562Z" fill="#FFE278"/>
<path d="M54.1357 66.5426L54.0283 64.1796L53.8135 54.5127C54.5654 58.1646 64.5546 61.0647 76.692 61.0647C88.8295 61.0647 99.5705 57.9498 99.8927 54.1903H100V65.3611H99.7852C99.7852 69.2278 89.3663 72.4503 76.6918 72.4503C64.0176 72.4501 55.8544 69.8724 54.1357 66.5426Z" fill="#FF936B"/>
<path d="M38.776 73.7391C41.6761 71.0539 43.9318 67.6166 45.1131 63.8574H45.6502C48.0132 64.0723 50.3763 64.1796 52.9542 64.1796H54.0282V66.5426L54.243 75.5652H53.0615C48.3354 75.6725 43.7168 75.1355 39.0982 74.0615L38.776 73.7391Z" fill="#FFC178"/>
<path d="M54.1356 53.6534V54.1904L54.3505 64.1796H53.2763C50.591 64.1796 48.1205 64.0723 45.7576 63.8574H45.2206C45.9725 61.6019 46.2946 59.2389 46.2946 56.8758C46.2946 55.2646 46.0798 53.7609 45.7576 52.2572H46.2946C48.5501 52.4721 50.8059 52.5794 53.2763 52.5794L54.2429 53.1164C54.1356 53.331 54.1356 53.5459 54.1356 53.6534Z" fill="#FF936B"/>
<path d="M38.4538 39.7974C43.1799 40.9789 48.1207 41.5159 52.9543 41.4086C65.5213 41.4086 76.155 38.2937 76.155 34.3194H76.3699V46.9939C64.6621 46.9939 55.1025 49.7866 53.921 53.331L52.9543 52.794C50.5913 52.794 48.3357 52.6867 46.1875 52.4718H45.6505C44.6838 47.5309 42.1059 43.1271 38.2392 39.9047L38.4538 39.7974Z" fill="#FFC178"/>
<path d="M45.8651 52.4718C44.7911 47.5308 42.1057 43.0198 38.2389 39.69C35.8759 37.5418 33.0832 36.0381 30.0758 35.1787C27.9276 34.4269 25.5645 34.1047 23.309 34.1047C10.527 33.997 0.108096 44.2011 0.000777779 56.9828C-0.10654 69.7646 10.0973 80.1835 22.8793 80.2908C28.7869 80.2908 34.3722 78.1426 38.776 74.1684C41.7835 71.3756 44.0391 67.8312 45.2206 63.9643C45.9724 61.7088 46.2946 59.453 46.2946 57.09C46.2948 55.5867 45.8651 53.9755 45.8651 52.4718Z" fill="#FFE278"/>
<path d="M99.8927 53.9755V54.1903C99.5705 57.9497 89.1516 61.0646 76.692 61.0646C64.2324 61.0646 54.5653 58.1646 53.8135 54.5127V53.9757C53.8135 53.7608 53.8135 53.546 53.9208 53.3311C55.1023 49.7865 64.6619 46.994 76.3696 46.994H76.6918C89.3664 46.9938 99.8927 50.1087 99.8927 53.9755Z" fill="#FFE278"/>
<path d="M23.309 54.2977C21.3756 54.2977 19.7644 52.6865 19.7644 50.7531C19.7644 48.8197 21.3756 47.2085 23.309 47.2085C25.2424 47.2085 26.8536 48.8197 26.8536 50.7531C26.8536 51.9346 27.8203 52.9013 29.0018 52.9013C30.1833 52.9013 31.15 51.9346 31.15 50.7531C31.15 47.316 28.787 44.2011 25.4572 43.2344V42.3751C25.4572 41.1935 24.4905 40.2269 23.309 40.2269C22.1275 40.2269 21.1608 41.1935 21.1608 42.3751V43.2344C17.7237 44.0938 15.3607 47.2087 15.468 50.7531C15.468 55.0495 19.0126 58.5941 23.309 58.5941C25.2424 58.5941 26.8536 60.2053 26.8536 62.1387C26.8536 64.0721 25.2424 65.6833 23.309 65.6833C21.3756 65.6833 19.7644 64.0721 19.7644 62.1387C19.7644 60.9572 18.7977 59.9905 17.6162 59.9905C16.4347 59.9905 15.468 60.9572 15.468 62.1387C15.468 65.6833 17.831 68.6906 21.1608 69.6573V71.3759C21.1608 72.5574 22.1275 73.5241 23.309 73.5241C24.4905 73.5241 25.4572 72.5574 25.4572 71.3759V69.6573C29.6461 68.4758 32.0092 64.0721 30.7203 59.8829C29.7536 56.6607 26.7461 54.2977 23.309 54.2977Z" fill="#FFC178"/>
</g>
<defs>
<clipPath id="clip0">
<rect width="100" height="100" fill="white"/>
</clipPath>
</defs>
</svg>

<svg width="100" height="100" fill="none" xmlns="http://www.w3.org/2000/svg"><g clip-path="url(#clip0)"><path d="M100 65.361v11.386c0 3.866-10.311 7.089-22.986 7.089-12.674 0-22.77-3.115-22.77-6.982v-1.289l-.216-9.022h.108c1.718 3.33 11.17 5.907 22.556 5.907 11.385 0 23.093-3.222 23.093-7.089H100z" fill="#FFC178"/><path d="M76.37 23.041V34.32h-.215c0 3.975-10.634 7.09-23.2 7.09a55.127 55.127 0 01-14.501-1.612l-.215.215a25.099 25.099 0 00-7.948-4.404v-.214l-.323-11.923c.752 3.652 10.741 6.552 22.879 6.552 12.137 0 23.308-3.115 23.308-6.982h.215z" fill="#FF936B"/><path d="M76.37 23.256c0 3.867-10.634 6.982-23.308 6.982-12.675 0-22.234-2.9-22.986-6.552 0-.107-.108-.322-.108-.43 0-3.866 10.312-7.089 23.094-7.089 12.781-.107 23.308 3.115 23.308 7.09z" fill="#FFE278"/><path d="M54.136 66.543l-.108-2.363-.215-9.667c.752 3.652 10.742 6.552 22.879 6.552 12.138 0 22.879-3.115 23.2-6.875H100v11.171h-.215c0 3.867-10.419 7.09-23.093 7.09s-20.838-2.579-22.556-5.908z" fill="#FF936B"/><path d="M38.776 73.74c2.9-2.686 5.156-6.123 6.337-9.883h.537c2.363.215 4.726.323 7.304.323h1.074v2.363l.215 9.022h-1.181c-4.727.108-9.345-.43-13.964-1.504l-.322-.322z" fill="#FFC178"/><path d="M54.136 53.653v.537l.214 9.99h-1.074c-2.685 0-5.156-.108-7.518-.323h-.537c.752-2.255 1.074-4.618 1.074-6.981 0-1.611-.215-3.115-.537-4.619h.537a72.51 72.51 0 006.981.322l.967.537c-.107.215-.107.43-.107.537z" fill="#FF936B"/><path d="M38.454 39.797a55.126 55.126 0 0014.5 1.612c12.567 0 23.201-3.115 23.201-7.09h.215v12.675c-11.708 0-21.268 2.793-22.449 6.337l-.967-.537c-2.363 0-4.618-.107-6.767-.322h-.536c-.967-4.941-3.545-9.345-7.412-12.567l.215-.108z" fill="#FFC178"/><path d="M45.865 52.472A23.51 23.51 0 0038.24 39.69c-2.363-2.148-5.156-3.652-8.163-4.511-2.148-.752-4.512-1.074-6.767-1.074C10.527 33.997.109 44.2.001 56.983c-.108 12.782 10.096 23.2 22.878 23.308 5.908 0 11.493-2.148 15.897-6.123 3.007-2.792 5.263-6.337 6.445-10.204.751-2.255 1.074-4.511 1.074-6.874 0-1.503-.43-3.115-.43-4.618zm54.028 1.503v.215c-.323 3.76-10.741 6.875-23.201 6.875s-22.127-2.9-22.878-6.552v-.537c0-.215 0-.43.107-.645 1.181-3.545 10.74-6.337 22.449-6.337h.322c12.674 0 23.2 3.115 23.2 6.981z" fill="#FFE278"/><path d="M23.309 54.298c-1.933 0-3.545-1.611-3.545-3.545 0-1.933 1.612-3.544 3.545-3.544 1.933 0 3.545 1.61 3.545 3.544 0 1.182.966 2.148 2.148 2.148a2.155 2.155 0 002.148-2.148c0-3.437-2.363-6.552-5.693-7.519v-.859a2.154 2.154 0 00-2.148-2.148 2.154 2.154 0 00-2.148 2.148v.86a7.501 7.501 0 00-5.693 7.518c0 4.297 3.545 7.841 7.841 7.841 1.933 0 3.545 1.611 3.545 3.545 0 1.933-1.612 3.544-3.545 3.544-1.933 0-3.545-1.61-3.545-3.544a2.155 2.155 0 00-2.148-2.149 2.155 2.155 0 00-2.148 2.149c0 3.544 2.363 6.552 5.693 7.518v1.719c0 1.181.966 2.148 2.148 2.148a2.155 2.155 0 002.148-2.148v-1.719c4.19-1.181 6.552-5.585 5.263-9.774-.966-3.222-3.974-5.585-7.411-5.585z" fill="#FFC178"/></g><defs><clipPath id="clip0"><path fill="#fff" d="M0 0h100v100H0z"/></clipPath></defs></svg>
